X: 2
T: The Gravel Walks
R: reel
M: 4/4
L: 1/8
K: Gmaj
G2dG BGdG|~G2Bd cAFA|1 (3GGGdG Bcde|fdcB cAFA:|2 ~G2Bc dfeg|fdcA GABc||d~g3 bgaf|dggf d2cA|d~g3 bgag|fdcA GABc|d~g3 bgaf|dggf defg|abag (3fga fe|defd cAFA||


Tune 42	Setting 20812

